**harm	**harte	**timestamp	**phrase	**leadinstrument	**kern
*M4/4	*M4/4	*	*	*	*
*A:	*A:	*	*	*	*A:
1r;	N	0	.	r	1r;
=1	=1	=1	=1	=1	=1
*>A2_intro	*>A2_intro	*>A2_intro	*>A2_intro	*>A2_intro	*>A2_intro
1V7	E:7	0.209	newline	r	1E 1g# 1b 1dd
=2	=2	=2	=2	=2	=2
1V7	E:7	2.777	.	r	1E 1g# 1b 1dd
=3	=3	=3	=3	=3	=3
2I	A:maj	5.345	.	r	2A 2cc# 2ee
2IV	D:maj	6.629	.	r	2D 2f# 2a
=4	=4	=4	=4	=4	=4
2I	A:maj	7.912	.	r	2A 2cc# 2ee
2V	E:maj	9.196	.	r	2E 2g# 2b
=5	=5	=5	=5	=5	=5
*>B_verse	*>B_verse	*>B_verse	*>B_verse	*>B_verse	*>B_verse
1I	A:maj	10.48	newline	voice	1A 1cc# 1ee
=6	=6	=6	=6	=6	=6
1Im7	A:7	12.881	.	voice	1A 1cc# 1ee 1gg#
=7	=7	=7	=7	=7	=7
1IV	D:maj	15.282	.	voice	1D 1f# 1a
=8	=8	=8	=8	=8	=8
1IV	D:maj	17.683	.	voice	1D 1f# 1a
=9	=9	=9	=9	=9	=9
1I	A:maj	20.084	newline	voice	1A 1cc# 1ee
=10	=10	=10	=10	=10	=10
1I	A:maj	22.438	.	voice	1A 1cc# 1ee
=11	=11	=11	=11	=11	=11
1V7	E:7	24.791	.	voice	1E 1g# 1b 1dd
=12	=12	=12	=12	=12	=12
1V7	E:7	27.145	.	voice	1E 1g# 1b 1dd
=13	=13	=13	=13	=13	=13
1I	A:maj	29.498	newline	voice	1A 1cc# 1ee
=14	=14	=14	=14	=14	=14
1Im7	A:7	31.873	.	voice	1A 1cc# 1ee 1gg#
=15	=15	=15	=15	=15	=15
1IV	D:maj	34.248	.	voice	1D 1f# 1a
=16	=16	=16	=16	=16	=16
1IV	D:maj	36.623	.	voice	1D 1f# 1a
=17	=17	=17	=17	=17	=17
1V7	E:7	38.998	newline	voice	1E 1g# 1b 1dd
=18	=18	=18	=18	=18	=18
1V7	E:7	41.388	.	voice	1E 1g# 1b 1dd
=19	=19	=19	=19	=19	=19
2I	A:maj	43.777	.	voice	2A 2cc# 2ee
2IV	D:maj	44.972	.	voice	2D 2f# 2a
=20	=20	=20	=20	=20	=20
1I	A:maj	46.166	.	voice	1A 1cc# 1ee
=21	=21	=21	=21	=21	=21
*>A_chorus	*>A_chorus	*>A_chorus	*>A_chorus	*>A_chorus	*>A_chorus
1V7	E:7	48.556	newline	voice	1E 1g# 1b 1dd
=22	=22	=22	=22	=22	=22
1V7	E:7	50.913	.	voice	1E 1g# 1b 1dd
=23	=23	=23	=23	=23	=23
1IV	D:maj	53.27	.	voice	1D 1f# 1a
=24	=24	=24	=24	=24	=24
1IV	D:maj	55.627	.	voice	1D 1f# 1a
=25	=25	=25	=25	=25	=25
1V7	E:7	57.984	newline	voice	1E 1g# 1b 1dd
=26	=26	=26	=26	=26	=26
1V7	E:7	60.349	.	voice	1E 1g# 1b 1dd
=27	=27	=27	=27	=27	=27
1IV	D:maj	62.714	.	voice	1D 1f# 1a
=28	=28	=28	=28	=28	=28
1I	A:maj	65.079	.	voice	1A 1cc# 1ee
=29	=29	=29	=29	=29	=29
1I	A:maj	67.444	newline	voice	1A 1cc# 1ee
=30	=30	=30	=30	=30	=30
1Im7	A:7	69.684	.	voice	1A 1cc# 1ee 1gg#
=31	=31	=31	=31	=31	=31
1IV	D:maj	71.925	.	voice	1D 1f# 1a
=32	=32	=32	=32	=32	=32
1IV	D:maj	74.165	.	voice	1D 1f# 1a
=33	=33	=33	=33	=33	=33
1V7	E:7	76.406	newline	voice	1E 1g# 1b 1dd
=34	=34	=34	=34	=34	=34
1V7	E:7	78.727	.	voice	1E 1g# 1b 1dd
=35	=35	=35	=35	=35	=35
2I	A:maj	81.048	.	voice	2A 2cc# 2ee
2IV	D:maj	82.208	.	voice	2D 2f# 2a
=36	=36	=36	=36	=36	=36
2I	A:maj	83.369	.	voice	2A 2cc# 2ee
2V	E:maj	84.529	.	voice	2E 2g# 2b
=37	=37	=37	=37	=37	=37
*>B_verse	*>B_verse	*>B_verse	*>B_verse	*>B_verse	*>B_verse
1I	A:maj	85.69	newline	voice	1A 1cc# 1ee
=38	=38	=38	=38	=38	=38
1Im7	A:7	88.034	.	voice	1A 1cc# 1ee 1gg#
=39	=39	=39	=39	=39	=39
1IV	D:maj	90.378	.	voice	1D 1f# 1a
=40	=40	=40	=40	=40	=40
1IV	D:maj	92.722	.	voice	1D 1f# 1a
=41	=41	=41	=41	=41	=41
1I	A:maj	95.067	newline	voice	1A 1cc# 1ee
=42	=42	=42	=42	=42	=42
1I	A:maj	97.402	.	voice	1A 1cc# 1ee
=43	=43	=43	=43	=43	=43
1V7	E:7	99.738	.	voice	1E 1g# 1b 1dd
=44	=44	=44	=44	=44	=44
1V7	E:7	102.074	.	voice	1E 1g# 1b 1dd
=45	=45	=45	=45	=45	=45
1I	A:maj	104.41	newline	voice	1A 1cc# 1ee
=46	=46	=46	=46	=46	=46
1Im7	A:7	106.775	.	voice	1A 1cc# 1ee 1gg#
=47	=47	=47	=47	=47	=47
1IV	D:maj	109.141	.	voice	1D 1f# 1a
=48	=48	=48	=48	=48	=48
1IV	D:maj	111.507	.	voice	1D 1f# 1a
=49	=49	=49	=49	=49	=49
1V7	E:7	113.873	newline	voice	1E 1g# 1b 1dd
=50	=50	=50	=50	=50	=50
1V7	E:7	116.221	.	voice	1E 1g# 1b 1dd
=51	=51	=51	=51	=51	=51
2I	A:maj	118.57	.	voice	2A 2cc# 2ee
2IV	D:maj	119.744	.	voice	2D 2f# 2a
=52	=52	=52	=52	=52	=52
1I	A:maj	120.918	.	voice	1A 1cc# 1ee
=53	=53	=53	=53	=53	=53
*>A_chorus	*>A_chorus	*>A_chorus	*>A_chorus	*>A_chorus	*>A_chorus
1V7	E:7	123.266	newline	voice	1E 1g# 1b 1dd
=54	=54	=54	=54	=54	=54
1V7	E:7	125.601	.	voice	1E 1g# 1b 1dd
=55	=55	=55	=55	=55	=55
1IV	D:maj	127.936	.	voice	1D 1f# 1a
=56	=56	=56	=56	=56	=56
1IV	D:maj	130.271	.	voice	1D 1f# 1a
=57	=57	=57	=57	=57	=57
1V7	E:7	132.606	newline	voice	1E 1g# 1b 1dd
=58	=58	=58	=58	=58	=58
1V7	E:7	134.949	.	voice	1E 1g# 1b 1dd
=59	=59	=59	=59	=59	=59
1IV	D:maj	137.292	.	voice	1D 1f# 1a
=60	=60	=60	=60	=60	=60
1I	A:maj	139.634	.	voice	1A 1cc# 1ee
=61	=61	=61	=61	=61	=61
1I	A:maj	141.977	newline	voice	1A 1cc# 1ee
=62	=62	=62	=62	=62	=62
1Im7	A:7	144.215	.	voice	1A 1cc# 1ee 1gg#
=63	=63	=63	=63	=63	=63
1IV	D:maj	146.453	.	voice	1D 1f# 1a
=64	=64	=64	=64	=64	=64
1IV	D:maj	148.692	.	voice	1D 1f# 1a
=65	=65	=65	=65	=65	=65
1V7	E:7	150.93	newline	voice	1E 1g# 1b 1dd
=66	=66	=66	=66	=66	=66
1V7	E:7	153.391	.	voice	1E 1g# 1b 1dd
=67	=67	=67	=67	=67	=67
2I	A:maj	155.853	.	voice	2A 2cc# 2ee
2IV	D:maj	157.084	.	voice	2D 2f# 2a
=68	=68	=68	=68	=68	=68
2IV	D:maj	158.315	.	voice	2D 2f# 2a
4Ib	A:maj/3	159.546	.	voice	4a 4C# 4ee
4ii7	B:min7	160.161	.	voice	4B 4dd 4ff# 4aa
=69	=69	=69	=69	=69	=69
1I	A:maj	160.777	newline	voice	1A 1cc# 1ee
1r;	N	166.696	.	r	1r;
1r;	N	169.613	.	r	1r;
*-	*-	*-	*-	*-	*-
!!!OTL: It Keeps Right On A-Hurtin'
!!!COC: Johnny Tillotson
!!!BillboardChartDate: 1962/06/09
!!!BillboardPeak: 3
!!!BillboardWeeksOnChart: 12
!!!SampleTargetRank: 6
!!!SampleActualRank: 6
!!!SampleID#: 1041
!!!RDF**harmony: **recip + pitch class of root + harmonic quality
!!!RDF**harte: Chris Harte's syntax, used by MIREX
!!!RDF**phrase: newline = linebreak in original McGill transcription
!!!RDF**timestamp: McGill audio timestamp in seconds
!!!RDF**leadinstrument: original McGill primary instrumentation annotation
!!!RDT: 2017/01/12/
!!!ENC: Nathaniel Condit-Schultz
!!!EST: Awating manual error checking and editing.
